svg/24/touch.svg

<svg width="24" height="24" viewBox="0 0 24 24" fill="currentColor" xmlns="http://www.w3.org/2000/svg"><path d="M8.67169 4.67157C9.42183 3.92143 10.4392 3.5 11.5001 3.5C12.561 3.5 13.5784 3.92143 14.3285 4.67157C15.0787 5.42172 15.5001 6.43913 15.5001 7.5C15.5001 7.91421 15.8359 8.25 16.2501 8.25C16.6643 8.25 17.0001 7.91421 17.0001 7.5C17.0001 6.04131 16.4207 4.64236 15.3892 3.61091C14.3578 2.57946 12.9588 2 11.5001 2C10.0414 2 8.64248 2.57946 7.61103 3.61091C6.57958 4.64236 6.00012 6.04131 6.00012 7.5C6.00012 7.91421 6.3359 8.25 6.75011 8.25C7.16433 8.25 7.50011 7.91421 7.50011 7.5C7.50011 6.43913 7.92154 5.42172 8.67169 4.67157Z"/><path fill-rule="evenodd" clip-rule="evenodd" d="M9.00011 7.5V14L7.30618 13.153C6.51278 12.7563 5.55979 12.8669 4.87834 13.4348C3.86973 14.2753 3.80055 15.8004 4.72892 16.7288L9.41433 21.4142C9.7894 21.7893 10.2981 22 10.8285 22H16.4161C17.3442 22 18.1503 21.3615 18.3629 20.4581L19.5818 15.2779C19.8187 14.271 19.2487 13.2495 18.2674 12.9224L14.0001 11.5V7.5C14.0001 6.11929 12.8808 5 11.5001 5C10.1194 5 9.00011 6.11929 9.00011 7.5ZM12.5001 12.5811L17.7931 14.3455C18.0384 14.4272 18.1809 14.6826 18.1217 14.9343L16.9028 20.1145C16.8497 20.3404 16.6481 20.5 16.4161 20.5H10.8285C10.6959 20.5 10.5688 20.4473 10.475 20.3536L5.78958 15.6681C5.48491 15.3635 5.50762 14.863 5.83861 14.5871C6.06225 14.4008 6.37499 14.3645 6.63536 14.4947L10.5001 16.4271V7.5C10.5001 6.94772 10.9478 6.5 11.5001 6.5C12.0524 6.5 12.5001 6.94772 12.5001 7.5V12.5811Z"/></svg>

<svg xmlns="http://www.w3.org/2000/svg" width="24" height="24" fill="currentColor" viewBox="0 0 24 24">
  <path d="M8.672 4.672A4 4 0 0 1 15.5 7.5a.75.75 0 0 0 1.5 0 5.5 5.5 0 1 0-11 0 .75.75 0 1 0 1.5 0 4 4 0 0 1 1.172-2.828Z"/>
  <path fill-rule="evenodd" d="M9 7.5V14l-1.694-.847a2.233 2.233 0 0 0-2.577 3.576l4.685 4.685A2 2 0 0 0 10.83 22h5.587a2 2 0 0 0 1.947-1.542l1.219-5.18a2 2 0 0 0-1.315-2.356L14 11.5v-4a2.5 2.5 0 0 0-5 0Zm3.5 5.081 5.293 1.764a.5.5 0 0 1 .329.59l-1.22 5.18a.5.5 0 0 1-.486.385h-5.588a.5.5 0 0 1-.353-.146L5.79 15.668a.733.733 0 0 1 .845-1.173l3.865 1.932V7.5a1 1 0 1 1 2 0v5.081Z" clip-rule="evenodd"/>
</svg>
